src/assets/icons/categories/icon-cat-incomeCat.svg

<svg xmlns="http://www.w3.org/2000/svg" width="32" height="32" viewBox="0 0 32 32">
  <g fill="none" fill-rule="evenodd">
    <circle cx="16" cy="16" r="16" fill="#35CE68"/>
    <path fill="#FFFFFF" d="M8.5005,17.126 C8.7755,17.126 9.0005,17.35 9.0005,17.626 L9.0005,25.126 C9.0005,25.401 8.7755,25.626 8.5005,25.626 L4.5005,25.626 C4.2245,25.626 4.0005,25.401 4.0005,25.126 L4.0005,17.626 C4.0005,17.35 4.2245,17.126 4.5005,17.126 L8.5005,17.126 Z M27.854,21.2715 C27.967,21.3855 28.019,21.5475 27.994,21.7055 C27.968,21.8645 27.868,22.0005 27.724,22.0735 C24.961,23.4545 23.105,24.5155 21.749,25.2915 C19.7,26.4615 18.719,27.0005 17.572,27.0005 C16.61,27.0005 15.531,26.6215 13.603,25.9205 C12.624,25.5635 11.403,25.1205 9.842,24.5995 C9.638,24.5325 9.5,24.3405 9.5,24.1255 L9.5,18.6255 C9.5,18.3495 9.724,18.1255 10,18.1255 L11.5,18.1255 C13.793,18.1255 15.188,19.5205 15.647,19.9795 C15.741,20.0735 15.868,20.1255 16,20.1255 L16.203,20.1255 L19,20.1255 C20.085,20.1255 20.375,21.0685 20.375,21.6255 C20.375,22.0275 20.247,22.4115 20.022,22.6805 C19.776,22.9755 19.432,23.1255 19,23.1255 L14,23.1255 C13.724,23.1255 13.5,23.3495 13.5,23.6255 C13.5,23.9015 13.724,24.1255 14,24.1255 L19,24.1255 C19.733,24.1255 20.352,23.8465 20.791,23.3205 C21.167,22.8685 21.375,22.2655 21.375,21.6255 C21.375,21.4655 21.361,21.3065 21.334,21.1495 L24.342,20.1515 C25.667,19.7715 26.68,20.0985 27.854,21.2715 Z M21.0005,11.126 C19.0705,11.126 17.5005,9.556 17.5005,7.626 C17.5005,5.695 19.0705,4.126 21.0005,4.126 C22.9305,4.126 24.5005,5.695 24.5005,7.626 C24.5005,9.556 22.9305,11.126 21.0005,11.126 Z M16.5005,18.126 C14.5705,18.126 13.0005,16.556 13.0005,14.626 C13.0005,12.695 14.5705,11.126 16.5005,11.126 C18.4305,11.126 20.0005,12.695 20.0005,14.626 C20.0005,16.556 18.4305,18.126 16.5005,18.126 Z M16.0005,13.626 L16.0005,15.626 C16.0005,15.901 16.2245,16.126 16.5005,16.126 C16.7755,16.126 17.0005,15.901 17.0005,15.626 L17.0005,13.626 C17.0005,13.35 16.7755,13.126 16.5005,13.126 C16.2245,13.126 16.0005,13.35 16.0005,13.626 Z M20.5005,6.626 L20.5005,8.626 C20.5005,8.901 20.7245,9.126 21.0005,9.126 C21.2755,9.126 21.5005,8.901 21.5005,8.626 L21.5005,6.626 C21.5005,6.35 21.2755,6.126 21.0005,6.126 C20.7245,6.126 20.5005,6.35 20.5005,6.626 Z"/>
  </g>
</svg>

<svg xmlns="http://www.w3.org/2000/svg" viewBox="0 0 32 32"><g fill="none" fill-rule="evenodd"><circle cx="16" cy="16" r="16" fill="#35CE68"/><path fill="#FFFFFF" d="M8.5 17.13c.28 0 .5.22.5.5v7.5a.5.5 0 0 1-.5.5h-4a.5.5 0 0 1-.5-.5v-7.5c0-.28.22-.5.5-.5h4zm19.35 4.14a.5.5 0 0 1-.13.8 110.91 110.91 0 0 0-5.97 3.22C19.7 26.46 18.72 27 17.57 27c-.96 0-2.04-.38-3.97-1.08-.98-.36-2.2-.8-3.76-1.32a.5.5 0 0 1-.34-.47v-5.5c0-.28.22-.5.5-.5h1.5c2.3 0 3.69 1.39 4.15 1.85.1.1.22.15.35.15h3c1.09 0 1.38.94 1.38 1.5 0 .4-.13.78-.36 1.05-.24.3-.59.45-1.02.45h-5a.5.5 0 0 0 0 1h5a2.3 2.3 0 0 0 1.8-.8 2.65 2.65 0 0 0 .53-2.18l3.01-1c1.33-.38 2.34-.05 3.51 1.12zM21 11.13a3.5 3.5 0 1 1 0-7.01 3.5 3.5 0 0 1 0 7zm-4.5 7a3.5 3.5 0 1 1 0-7.01 3.5 3.5 0 0 1 0 7zm-.5-4.5v2a.5.5 0 0 0 1 0v-2a.5.5 0 0 0-1 0zm4.5-7v2a.5.5 0 0 0 1 0v-2a.5.5 0 0 0-1 0z"/></g></svg>
